X: 991
T: The Kerry jig
C: anon.
O: Ireland
B: Francis O'Neill: "The Dance Music of Ireland" (1907) no. 991
R: Jig
Z: Transcribed by Frank Nordberg - http://www.musicaviva.com
F: http://www.musicaviva.com/abc/tunes/ireland/oneill-1001/oneill-1001-099
1.abc
M: 6/8
L: 1/8
K: C
B|A2A AGE|A2A AGE|G2E c2E|G3 E2G|A2A ABc|BAB G2B|ABc dcB|c3 c3:|
|:d|e2e edc|e3 g2G|A2G c2E|G3 E2G|A2A ABc|BAB G2B|ABc dcB|c3 c3:|
W:
W:
W: From Musica Viva - http://www.musicaviva.com
W: the Internet center for free sheet music downloads.


